img_num/1_25.svg

<svg xmlns="http://www.w3.org/2000/svg" viewBox="0 0 365 290"><title>Untitled-4</title><g id="Layer_4" data-name="Layer 4"><path d="M47.68,163.59,132.32,137c8.71-3.15,14.51-9.43,14.51-15.72,0-12.33-17.89-20.56-44.74-20.56-16,0-36.75,4.11-52,10.16H47.68V85.48C62.19,78.71,84,74.11,102.09,74.11c34.83,0,58,18.87,58,47.16A40.59,40.59,0,0,1,132.32,160l-84.64,26.6ZM171,225.26H47.68V201.07H171Z"/><path d="M317.32,70.49V94.67H194V70.49Zm-39.9,79.8c17.65,9,29,28.53,29,49.57,0,32.89-21.52,54.42-54.41,54.42-20.55,0-43.53-9.19-58-23V203.49h2.42C211.64,218,233.64,227.67,252,227.67c24.91,0,41.11-11.12,41.11-27.81a29.2,29.2,0,0,0-15.71-25.39L194,133.36V109.18Z"/></g></svg>

<?xml version="1.0" encoding="utf-8"?>
<!-- Generator: Adobe Illustrator 23.0.4, SVG Export Plug-In . SVG Version: 6.00 Build 0)  -->
<svg version="1.1" id="Layer_1" xmlns="http://www.w3.org/2000/svg" xmlns:xlink="http://www.w3.org/1999/xlink" x="0px" y="0px"
	 viewBox="0 0 365 290" style="enable-background:new 0 0 365 290;" xml:space="preserve">
<style type="text/css">
	.st0{stroke:#000000;stroke-width:5;stroke-miterlimit:10;}
</style>
<title>Untitled-4</title>
<g id="Layer_4">
	<path class="st0" d="M47.7,163.6l84.6-26.6c8.7-3.1,14.5-9.4,14.5-15.7c0-12.3-17.9-20.6-44.7-20.6c-16,0-36.8,4.1-52,10.2h-2.4
		V85.5c14.5-6.8,36.3-11.4,54.4-11.4c34.8,0,58,18.9,58,47.2c0.1,17.6-11.1,33.2-27.8,38.7l-84.6,26.6L47.7,163.6z M171,225.3H47.7
		v-24.2H171V225.3z"/>
	<path class="st0" d="M317.3,70.5v24.2H194V70.5H317.3z M277.4,150.3c17.6,9,29,28.5,29,49.6c0,32.9-21.5,54.4-54.4,54.4
		c-20.6,0-43.5-9.2-58-23v-27.8h2.4c15.2,14.5,37.2,24.2,55.6,24.2c24.9,0,41.1-11.1,41.1-27.8c-0.2-10.7-6.2-20.4-15.7-25.4
		L194,133.4v-24.2L277.4,150.3z"/>
</g>
</svg>
